svgs/thin/group-arrows-rotate.svg

<svg xmlns="http://www.w3.org/2000/svg" viewBox="0 0 512 512"><!--! Font Awesome Pro 6.1.1 by @fontawesome - https://fontawesome.com License - https://fontawesome.com/license (Commercial License) Copyright 2022 Fonticons, Inc. --><path d="M160 96C160 131.3 131.3 160 96 160C85.26 160 75.15 157.4 66.26 152.7C59.11 165.8 53.28 179.7 48.94 194.3C47.68 198.5 43.23 200.9 38.99 199.7C34.76 198.4 32.35 193.1 33.61 189.7C38.44 173.5 44.1 157.1 53.07 143.5C40.13 131.8 32 114.8 32 96C32 60.65 60.65 32 96 32C114.8 32 131.8 40.13 143.5 53.07C157.1 44.1 173.5 38.44 189.7 33.61C193.1 32.35 198.4 34.76 199.7 38.1C200.9 43.23 198.5 47.68 194.3 48.94C179.7 53.28 165.8 59.11 152.7 66.26C157.4 75.15 160 85.27 160 96H160zM96 143.1C122.5 143.1 144 122.5 144 95.1C144 69.49 122.5 47.1 96 47.1C69.49 47.1 48 69.49 48 95.1C48 122.5 69.49 143.1 96 143.1zM312.3 38.1C313.6 34.76 318 32.35 322.3 33.61C338.5 38.44 354 44.1 368.5 53.07C380.2 40.13 397.2 32 416 32C451.3 32 480 60.65 480 96C480 114.8 471.9 131.8 458.9 143.5C467 157.1 473.6 173.5 478.4 189.7C479.7 193.1 477.2 198.4 473 199.7C468.8 200.9 464.3 198.5 463.1 194.3C458.7 179.7 452.9 165.8 445.7 152.7C436.9 157.4 426.7 160 416 160C380.7 160 352 131.3 352 96C352 85.27 354.6 75.15 359.3 66.26C346.2 59.11 332.3 53.28 317.7 48.95C313.5 47.69 311.1 43.23 312.3 38.1L312.3 38.1zM416 47.1C389.5 47.1 368 69.49 368 95.1C368 122.5 389.5 143.1 416 143.1C442.5 143.1 464 122.5 464 95.1C464 69.49 442.5 47.1 416 47.1V47.1zM38.99 312.3C43.23 311.1 47.68 313.5 48.94 317.7C53.28 332.3 59.11 346.2 66.26 359.3C75.15 354.6 85.26 352 96 352C131.3 352 160 380.7 160 416C160 426.7 157.4 436.9 152.7 445.7C165.8 452.9 179.7 458.7 194.3 463.1C198.5 464.3 200.9 468.8 199.7 473C198.4 477.2 193.1 479.7 189.7 478.4C173.5 473.6 157.1 467 143.5 458.9C131.8 471.9 114.8 480 96 480C60.65 480 32 451.3 32 416C32 397.2 40.13 380.2 53.07 368.5C44.1 354 38.44 338.5 33.61 322.3C32.35 318 34.76 313.6 38.99 312.3V312.3zM96 464C122.5 464 144 442.5 144 416C144 389.5 122.5 368 96 368C69.49 368 48 389.5 48 416C48 442.5 69.49 464 96 464zM473 312.3C477.2 313.6 479.7 318 478.4 322.3C473.6 338.5 467 354 458.9 368.5C471.9 380.2 480 397.2 480 416C480 451.3 451.3 480 416 480C397.2 480 380.2 471.9 368.5 458.9C354 467 338.5 473.6 322.3 478.4C318 479.7 313.6 477.2 312.3 473C311.1 468.8 313.5 464.3 317.7 463.1C332.3 458.7 346.2 452.9 359.3 445.7C354.6 436.9 352 426.7 352 416C352 380.7 380.7 352 416 352C426.7 352 436.9 354.6 445.7 359.3C452.9 346.2 458.7 332.3 463.1 317.7C464.3 313.5 468.8 311.1 473 312.3V312.3zM416 368C389.5 368 368 389.5 368 416C368 442.5 389.5 464 416 464C442.5 464 464 442.5 464 416C464 389.5 442.5 368 416 368zM152.8 160.8C152.8 156.4 156.4 152.8 160.8 152.8H216.8C221.2 152.8 224.8 156.4 224.8 160.8V216.8C224.8 221.2 221.2 224.8 216.8 224.8C212.4 224.8 208.8 221.2 208.8 216.8V181.7C184.3 197.3 168 224.8 168 255.1C168 304.6 207.4 344 256 344C260.4 344 264 347.6 264 352C264 356.4 260.4 360 256 360C198.6 360 152 313.4 152 255.1C152 219.5 170.8 187.3 199.3 168.8H160.8C156.4 168.8 152.8 165.2 152.8 160.8V160.8zM359.2 352C359.2 356.4 355.6 360 351.2 360H295.2C290.8 360 287.2 356.4 287.2 352V295.1C287.2 291.6 290.8 287.1 295.2 287.1C299.6 287.1 303.2 291.6 303.2 295.1V331.1C327.7 315.4 344 288 344 256.8C344 208.2 304.6 168.8 256 168.8C251.6 168.8 248 165.2 248 160.8C248 156.4 251.6 152.8 256 152.8C313.4 152.8 360 199.4 360 256.8C360 293.3 341.2 325.5 312.7 344H351.2C355.6 344 359.2 347.6 359.2 352L359.2 352z"/></svg>

<svg xmlns="http://www.w3.org/2000/svg" viewBox="0 0 512 512"><!--! Font Awesome Pro 6.4.2 by @fontawesome - https://fontawesome.com License - https://fontawesome.com/license (Commercial License) Copyright 2023 Fonticons, Inc. --><path d="M160 96c0 35.3-28.7 64-64 64c-10.7 0-20.9-2.6-29.7-7.3c-7.2 13.1-13 27-17.3 41.6c-1.3 4.2-5.7 6.6-9.9 5.4s-6.6-5.7-5.4-9.9C38.4 173.5 45 158 53.1 143.5C40.1 131.8 32 114.8 32 96c0-35.3 28.7-64 64-64c18.8 0 35.8 8.1 47.5 21.1c14.5-8.1 30-14.6 46.2-19.5c4.2-1.3 8.7 1.2 9.9 5.4s-1.2 8.7-5.4 9.9c-14.6 4.3-28.5 10.2-41.6 17.3c4.7 8.9 7.3 19 7.3 29.7zM312.3 39c1.3-4.2 5.7-6.6 10-5.4C338.5 38.4 354 45 368.5 53.1C380.2 40.1 397.2 32 416 32c35.3 0 64 28.7 64 64c0 18.8-8.1 35.8-21.1 47.5c8.1 14.5 14.6 30 19.5 46.2c1.3 4.2-1.2 8.7-5.4 9.9s-8.7-1.2-9.9-5.4c-4.3-14.6-10.2-28.5-17.3-41.6c-8.9 4.7-19 7.3-29.7 7.3c-35.3 0-64-28.7-64-64c0-10.7 2.6-20.9 7.3-29.7c-13.1-7.2-27-13-41.6-17.3c-4.2-1.3-6.6-5.7-5.4-9.9zM39 312.3c4.2-1.3 8.7 1.2 9.9 5.4c4.3 14.6 10.2 28.5 17.3 41.6c8.9-4.7 19-7.3 29.7-7.3c35.3 0 64 28.7 64 64c0 10.7-2.6 20.9-7.3 29.7c13.1 7.1 27 13 41.6 17.3c4.2 1.3 6.6 5.7 5.4 9.9s-5.7 6.6-9.9 5.4c-16.2-4.8-31.7-11.4-46.2-19.5C131.8 471.9 114.8 480 96 480c-35.3 0-64-28.7-64-64c0-18.8 8.1-35.8 21.1-47.5c-8.1-14.5-14.6-30-19.5-46.2c-1.3-4.2 1.2-8.7 5.4-10zm434 0c4.2 1.3 6.6 5.7 5.4 10c-4.8 16.2-11.4 31.7-19.5 46.2C471.9 380.2 480 397.2 480 416c0 35.3-28.7 64-64 64c-18.8 0-35.8-8.1-47.5-21.1c-14.5 8.1-30 14.6-46.2 19.5c-4.2 1.3-8.7-1.2-10-5.4s1.2-8.7 5.4-9.9c14.6-4.3 28.5-10.2 41.6-17.3c-4.7-8.9-7.3-19-7.3-29.7c0-35.3 28.7-64 64-64c10.7 0 20.9 2.6 29.7 7.3c7.1-13.1 13-27 17.3-41.6c1.3-4.2 5.7-6.6 9.9-5.4zM152.8 160.8c0-4.4 3.6-8 8-8h56c4.4 0 8 3.6 8 8v56c0 4.4-3.6 8-8 8s-8-3.6-8-8V181.7C184.3 197.3 168 224.8 168 256c0 48.6 39.4 88 88 88c4.4 0 8 3.6 8 8s-3.6 8-8 8c-57.4 0-104-46.6-104-104c0-36.5 18.8-68.7 47.3-87.2H160.8c-4.4 0-8-3.6-8-8zM359.2 352c0 4.4-3.6 8-8 8h-56c-4.4 0-8-3.6-8-8V296c0-4.4 3.6-8 8-8s8 3.6 8 8v35.1C327.7 315.4 344 288 344 256.8c0-48.6-39.4-88-88-88c-4.4 0-8-3.6-8-8s3.6-8 8-8c57.4 0 104 46.6 104 104c0 36.5-18.8 68.7-47.3 87.2h38.5c4.4 0 8 3.6 8 8zM464 96a48 48 0 1 0 -96 0 48 48 0 1 0 96 0zM96 144a48 48 0 1 0 0-96 48 48 0 1 0 0 96zM464 416a48 48 0 1 0 -96 0 48 48 0 1 0 96 0zM96 464a48 48 0 1 0 0-96 48 48 0 1 0 0 96z"/></svg>
